src/lib/images/icons/sun.svg

<svg width="32" height="32" viewBox="0 0 32 32" fill="none" xmlns="http://www.w3.org/2000/svg">
<path d="M31.5882 15.0483L27.7089 11.1691V5.65068C27.7089 4.89965 27.095 4.28576 26.344 4.28576H20.8321L16.9529 0.406535C16.4108 -0.135512 15.588 -0.135512 15.0459 0.406535L11.1667 4.29229H5.64826C4.89723 4.29229 4.28335 4.90618 4.28335 5.65721V11.1691L0.40412 15.0483C-0.144458 15.5969 -0.124866 16.4263 0.40412 16.9553L4.28988 20.8345V26.3464C4.28988 27.0975 4.90376 27.7113 5.65479 27.7113H11.1667L15.0459 31.5906C15.5553 32.1 16.3716 32.1718 16.9529 31.5906L20.8321 27.7113H26.344C27.095 27.7113 27.7089 27.0975 27.7089 26.3464V20.8345L31.5882 16.9553C32.1302 16.4198 32.1171 15.5773 31.5882 15.0483ZM25.4624 19.339C25.1881 19.6133 25.0509 19.9529 25.0509 20.2925V25.0599H20.2835C19.9439 25.0599 19.6043 25.197 19.3301 25.4713L15.9994 28.802L12.6622 25.4648C12.3879 25.1905 12.0483 25.0534 11.7087 25.0534H6.94134V20.2859C6.94134 19.9464 6.80419 19.6068 6.52991 19.3325L3.19925 16.0018L6.53644 12.6646C6.81072 12.3903 6.94787 12.0508 6.94787 11.7112V6.94375H11.7153C12.0549 6.94375 12.3945 6.80661 12.6688 6.53232L15.9994 3.20167L19.3366 6.53885C19.6109 6.81314 19.9505 6.95028 20.2901 6.95028H25.0575V11.7177C25.0575 12.0573 25.1946 12.3969 25.4689 12.6712L28.7996 16.0018L25.4624 19.339Z" fill="white"/>
<path d="M15.9994 8.35437C11.8394 8.35437 8.44995 11.7373 8.44995 15.9038C8.44995 20.0639 11.8328 23.4533 15.9994 23.4533C20.166 23.4533 23.5489 20.0704 23.5489 15.9038C23.5489 11.7373 20.1595 8.35437 15.9994 8.35437ZM15.9994 20.7692C13.3153 20.7692 11.1275 18.588 11.1275 15.8973C11.1275 13.2132 13.3088 11.0254 15.9994 11.0254C18.6901 11.0254 20.8713 13.2067 20.8713 15.8973C20.8713 18.5814 18.6835 20.7692 15.9994 20.7692Z" fill="white"/>
</svg>

<svg width="32" height="32" fill="none" xmlns="http://www.w3.org/2000/svg"><path d="M31.588 15.048l-3.88-3.879V5.651c0-.751-.613-1.365-1.364-1.365h-5.512l-3.88-3.88a1.321 1.321 0 0 0-1.906 0l-3.88 3.886H5.649c-.75 0-1.365.614-1.365 1.365v5.512L.404 15.05a1.327 1.327 0 0 0 0 1.906l3.886 3.88v5.511c0 .752.614 1.365 1.365 1.365h5.512l3.879 3.88c.51.509 1.326.58 1.907 0l3.88-3.88h5.511c.751 0 1.365-.613 1.365-1.365v-5.512l3.88-3.879a1.333 1.333 0 0 0 0-1.907zm-6.126 4.291a1.345 1.345 0 0 0-.411.954v4.767h-4.767c-.34 0-.68.137-.954.411L16 28.802l-3.338-3.337a1.345 1.345 0 0 0-.953-.412H6.94v-4.767c0-.34-.137-.68-.411-.954l-3.33-3.33 3.336-3.337c.275-.275.412-.614.412-.954V6.944h4.767c.34 0 .68-.137.954-.412l3.33-3.33 3.338 3.337c.274.274.614.411.953.411h4.768v4.768c0 .34.137.679.41.953l3.332 3.33-3.338 3.338z" fill="#fff"/><path d="M16 8.354c-4.16 0-7.55 3.383-7.55 7.55 0 4.16 3.383 7.55 7.55 7.55a7.553 7.553 0 0 0 7.549-7.55c0-4.167-3.39-7.55-7.55-7.55zm0 12.415a4.876 4.876 0 0 1-4.873-4.872 4.872 4.872 0 0 1 9.744 0A4.88 4.88 0 0 1 16 20.77z" fill="#fff"/></svg>
